packages/foundations/assets/icons/functional/images/food/breakfast_32.svg

<svg width="32" height="32" viewBox="0 0 32 32" fill="none" xmlns="http://www.w3.org/2000/svg">
<g clip-path="url(#clip0_185_1032)">
<path fill-rule="evenodd" clip-rule="evenodd" d="M12.6024 3.37919C14.0373 4.20762 14.5289 6.04239 13.7005 7.47727L12.707 9.19677L13.1396 9.44769C13.5088 9.66085 13.7023 10.0846 13.6215 10.5032L13.29 12.2168C13.7675 12.1612 14.1864 12.4431 14.3449 12.8408L14.9182 14.9539C15.0612 15.4874 14.7446 16.0357 14.2111 16.1787C13.7157 16.3114 13.2076 16.0479 13.023 15.5825L12.663 14.2612L4.11155 14.8133C3.89183 16.874 4.6267 20.2423 6.10989 22.2712L11.4948 19.6124C11.9891 19.3661 12.5895 19.5673 12.8357 20.0616C13.0644 20.5207 12.9073 21.0711 12.4879 21.3446C10.6123 22.2971 9.29065 22.9577 8.52297 23.3264C9.26189 25.082 10.3325 26.2574 11.7347 26.8526C12.0025 26.3449 12.6343 26.1669 13.1036 26.4238C13.5729 26.6808 13.7476 27.2363 13.5489 27.6959L13.0759 28.5286C12.8594 28.9036 12.4269 29.0804 12.0025 29.0069C9.24203 28.5286 7.51003 25.9598 6.71591 24.2024L6.27058 24.4235C5.86634 24.6234 5.37518 24.5387 5.07915 24.1906C2.6766 21.3952 1.62392 16.4438 2.25946 13.6674C2.34965 13.2734 2.65897 12.9593 3.05409 12.8851L3.67144 12.8391C3.55095 10.6821 3.55095 8.03547 5.84613 6.03559C6.16986 5.75351 6.64043 5.69539 7.01587 5.91216L7.51003 6.19777L8.50431 4.47727C9.33274 3.04239 11.1675 2.55077 12.6024 3.37919ZM26.9223 18.2423C28.5791 18.2423 29.9223 19.5855 29.9223 21.2423C29.9223 22.84 28.6733 24.146 27.0985 24.2373L25.9015 24.2423C25.8506 25.0728 25.701 25.6227 25.4034 26.1792C25.0487 26.8424 24.5223 27.3688 23.8591 27.7235C23.1987 28.0767 22.5476 28.2213 21.4259 28.2402L19.4928 28.2423C18.3944 28.2423 17.6728 28.0911 16.9854 27.7235C16.3222 27.3688 15.7958 26.8424 15.4411 26.1792C15.1042 25.5491 14.949 24.8902 14.9254 23.9387L14.9223 20.5243C14.9223 19.9669 14.9869 19.6322 15.174 19.2823C15.3544 18.9451 15.625 18.6745 15.9622 18.4941C16.2684 18.3304 16.5629 18.2604 17.0052 18.2455L26.9223 18.2423ZM23.9223 20.2423H16.9223V23.6718C16.9223 24.463 17.0066 24.8655 17.2048 25.236C17.373 25.5506 17.614 25.7916 17.9286 25.9598C18.262 26.1381 18.6214 26.2243 19.2668 26.2398L21.5731 26.2367C22.2631 26.2158 22.5897 26.1343 22.9159 25.9598C23.2305 25.7916 23.4715 25.5506 23.6397 25.236C23.7967 24.9425 23.8785 24.6485 23.9085 24.0896L23.9223 20.2423ZM26.9223 20.2423H25.9223V22.2423H26.9223C27.4745 22.2423 27.9223 21.7946 27.9223 21.2423C27.9223 20.6901 27.4745 20.2423 26.9223 20.2423ZM18.9223 13.2423C19.4745 13.2423 19.9223 13.6901 19.9223 14.2423V15.2423C19.9223 15.7946 19.4745 16.2423 18.9223 16.2423C18.37 16.2423 17.9223 15.7946 17.9223 15.2423V14.2423C17.9223 13.6901 18.37 13.2423 18.9223 13.2423ZM21.9223 12.2423C22.4745 12.2423 22.9223 12.6901 22.9223 13.2423V15.2423C22.9223 15.7946 22.4745 16.2423 21.9223 16.2423C21.37 16.2423 20.9223 15.7946 20.9223 15.2423V13.2423C20.9223 12.6901 21.37 12.2423 21.9223 12.2423ZM6.69281 8.03547C5.29297 9.86555 5.59037 11.7533 5.67413 12.6971L11.228 12.3498L11.5237 10.8239L6.69281 8.03547ZM10.2364 5.47727L9.24203 7.19777L10.975 8.19777L11.9684 6.47727C12.2446 5.99898 12.0807 5.38739 11.6024 5.11124C11.1241 4.8351 10.5125 4.99898 10.2364 5.47727Z" fill="#1A1C1F"/>
</g>
<defs>
<clipPath id="clip0_185_1032">
<rect width="32" height="32" fill="white"/>
</clipPath>
</defs>
</svg>

<svg xmlns="http://www.w3.org/2000/svg" width="32" height="32" fill="none"><g clip-path="url(#a)"><path fill="#1A1C1F" fill-rule="evenodd" d="M12.602 3.38A3 3 0 0 1 13.7 7.476l-.993 1.72.433.25a1 1 0 0 1 .481 1.056l-.331 1.714a1.01 1.01 0 0 1 1.055.624l.573 2.113a1 1 0 0 1-1.895.628l-.36-1.32-8.551.551c-.22 2.061.515 5.43 1.998 7.458l5.385-2.659a1 1 0 0 1 .993 1.733 233 233 0 0 1-3.965 1.981q1.109 2.633 3.212 3.527c.268-.508.9-.686 1.369-.43.469.258.644.813.445 1.273l-.473.833c-.217.375-.65.551-1.074.478-2.76-.478-4.492-3.047-5.286-4.805l-.445.221a.984.984 0 0 1-1.192-.232c-2.402-2.796-3.455-7.747-2.82-10.524.09-.394.4-.708.795-.782l.617-.046c-.12-2.157-.12-4.804 2.175-6.803.324-.282.794-.34 1.17-.124l.494.286.994-1.72a3 3 0 0 1 4.098-1.099m14.32 14.862a3 3 0 0 1 .177 5.995l-1.198.005c-.05.83-.2 1.38-.498 1.937a3.73 3.73 0 0 1-1.544 1.545c-.66.353-1.311.497-2.433.516l-1.933.002c-1.099 0-1.82-.15-2.508-.518a3.73 3.73 0 0 1-1.544-1.545c-.337-.63-.492-1.289-.516-2.24l-.003-3.415c0-.557.065-.892.252-1.242a1.9 1.9 0 0 1 .788-.788c.306-.164.6-.234 1.043-.248zm-3 2h-7v3.43c0 .791.085 1.194.283 1.564q.252.472.724.724c.333.178.692.264 1.338.28l2.306-.003c.69-.021 1.017-.103 1.343-.277q.47-.252.724-.724c.157-.294.238-.588.268-1.146zm3 0h-1v2h1a1 1 0 0 0 0-2m-8-7a1 1 0 0 1 1 1v1a1 1 0 0 1-2 0v-1a1 1 0 0 1 1-1m3-1a1 1 0 0 1 1 1v2a1 1 0 0 1-2 0v-2a1 1 0 0 1 1-1M6.692 8.035c-1.399 1.83-1.102 3.718-1.018 4.662l5.554-.347.296-1.526zm3.544-2.558-.994 1.72 1.733 1 .993-1.72a1 1 0 1 0-1.732-1" clip-rule="evenodd"/></g><defs><clipPath id="a"><path fill="#fff" d="M0 0h32v32H0z"/></clipPath></defs></svg>
